X:1
T:Title
%%score { ( 1 3 ) | ( 2 4 ) }
L:1/8
M:4/4
K:Ab
V:1 treble nm="Grand Piano"
V:3 treble 
V:2 bass 
V:4 bass 
V:1
 z4 z2[Q:1/4=94] [CE][CA] | [Ec]2 [DB]>[CA] [FB]2 [EG]>[DF] | [DF]4 [CE]2 [CE][CEA] | %3
 G2 GA B2 B[Ac] | [Gd]6 [CE][CA] | [Ec]2 [DB]>[A,CA] [A,FA]2 [A,EG]>[A,DF] | %6
 [A,DF]4 [A,CE]2 [A,CE][CEA] | G2 GA c B2 E |[M:3/4] [CA]6 |[M:1/4] [CA]2 | %10
[M:4/4] [DA]2 [Fd]>[Fd] [Fd]2 [Fd][FA] | [Ec]2 [Ec]4 c>c | B2 B2 A2 A2 | G6 E2 | z4 .A2 z2 | %15
 e4 z4 | G2 dc c B2 E |[M:3/4] [CA]6 |] %18
V:2
 z4 z2 [A,,A,][A,,A,] | [A,,A,]2 [A,,E,]>[A,,A,] [D,A,]2 [D,A,]>[D,A,] | %2
 [A,,A,]4 [A,,A,]2 [A,,A,]A,, | [E,B,E]2 [E,B,E][E,CE] [E,DE]2 [E,G,E][E,A,] | %4
 [E,B,]6 [A,,A,][A,,E,] | [A,,A,]2 [A,,E,]>A,, D,2 D,>D, | A,,4 A,,2 A,,A,, | %7
 [E,B,E]2 [E,B,E][E,CE] [E,G,E] [E,G,D]2 [E,G,D] |[M:3/4] [A,,A,]6 |[M:1/4] [A,,E,]2 | %10
[M:4/4] [D,F,]2 [D,A,]>[D,A,] [D,A,]2 [D,A,][D,A,] | [A,,A,]2 [A,,A,]4 [A,E]>[A,E] | %12
 [G,B,E]2 [G,B,E]2 [F,B,=D]2 [F,B,D]2 | [E,B,E]6 E,2 | %14
 [A,,A,]2 [A,,E,][A,,E,] .[A,,F,]2 [A,,A,][A,,A,] | A,2 z2 z4 | %16
 [E,B,D]2 [E,G,F][E,G,E] [E,G,E] [E,G,D]2 [E,G,D] |[M:3/4] [A,,A,]6 |] %18
V:3
 x8 | x8 | x8 | x8 | x8 | x8 | x8 | x8 |[M:3/4] x6 |[M:1/4] x2 |[M:4/4] x8 | x8 | x8 | x8 | %14
 [Ec]2 [DB][CA] D-[A,DG][DF][CE] | E2 [=A,_G]2 [Fd]2 F>F | x8 |[M:3/4] x6 |] %18
V:4
 x8 | x8 | x8 | x8 | x8 | x8 | x8 | x8 |[M:3/4] x6 |[M:1/4] x2 |[M:4/4] x8 | x8 | x8 | x8 | x8 | %15
 C,4 [D,B,]2 [D,B,D]>[D,B,D] | x8 |[M:3/4] x6 |] %18

